imgs/logo16.svg

<?xml version="1.0" encoding="UTF-8"?>
<svg width="100px" height="50px" viewBox="0 0 100 50" version="1.1" xmlns="http://www.w3.org/2000/svg" xmlns:xlink="http://www.w3.org/1999/xlink">
    <!-- Generator: Sketch 55.2 (78181) - https://sketchapp.com -->
    <title>Artboard 8</title>
    <desc>Created with Sketch.</desc>
    <g id="Artboard-8" stroke="none" stroke-width="1" fill="none" fill-rule="evenodd">
        <path d="M57.3872,12.4964 C47.7922,8.6354 38.2822,17.5654 40.1912,27.3174 C41.0692,31.8064 44.4722,35.2914 48.7252,36.7754 C53.4702,38.4324 58.3482,36.8934 61.9242,33.5664 C67.2372,28.6244 59.2682,20.6834 53.9692,25.6114 C53.3862,26.1534 52.9022,26.4114 52.3632,26.1834 C51.8902,25.9824 51.4812,25.7144 51.1752,25.3004 C51.7022,26.0154 51.0792,24.5014 51.1692,25.1764 C50.8922,23.0764 52.1632,22.4454 54.3972,23.3454 C57.2162,24.4784 60.5762,22.1074 61.3162,19.4164 C62.1982,16.2054 60.2172,13.6354 57.3872,12.4964" id="Fill-158" fill="#E77E9F"></path>
        <path d="M86.0298,12.2015 C76.4448,8.3295 66.9228,17.2575 68.8258,27.0095 C69.7018,31.4975 73.1008,34.9855 77.3538,36.4725 C82.0988,38.1335 86.9728,36.5975 90.5548,33.2745 C95.8738,28.3395 87.9038,20.3975 82.5998,25.3195 C82.0158,25.8615 81.5298,26.1115 80.9918,25.8795 C80.5198,25.6765 80.1108,25.4105 79.8068,24.9935 C80.3298,25.7105 79.7178,24.1885 79.8038,24.8665 C79.6978,24.0285 79.8308,23.3615 80.5398,22.7165 C80.0928,23.1225 81.3048,22.5285 80.9018,22.5555 C81.7168,22.5025 82.2188,22.7185 83.0398,23.0505 C85.8568,24.1875 89.2198,21.8095 89.9588,19.1215 C90.8418,15.9075 88.8578,13.3445 86.0298,12.2015" id="Fill-160" fill="#E77E9F"></path>
        <path d="M56.3872,11.4964 C46.7922,7.6354 37.2822,16.5654 39.1912,26.3174 C40.0692,30.8064 43.4722,34.2914 47.7252,35.7754 C52.4702,37.4324 57.3482,35.8934 60.9242,32.5664 C66.2372,27.6244 58.2682,19.6834 52.9692,24.6114 C52.3862,25.1534 51.9022,25.4114 51.3632,25.1834 C50.8902,24.9824 50.4812,24.7144 50.1752,24.3004 C50.7022,25.0154 50.0792,23.5014 50.1692,24.1764 C49.8922,22.0764 51.1632,21.4454 53.3972,22.3454 C56.2162,23.4784 59.5762,21.1074 60.3162,18.4164 C61.1982,15.2054 59.2172,12.6354 56.3872,11.4964" id="Fill-162" fill="#A42C66"></path>
        <path d="M85.0298,11.2015 C75.4448,7.3295 65.9228,16.2575 67.8258,26.0095 C68.7018,30.4975 72.1008,33.9855 76.3538,35.4725 C81.0988,37.1335 85.9728,35.5975 89.5548,32.2745 C94.8738,27.3395 86.9038,19.3975 81.5998,24.3195 C81.0158,24.8615 80.5298,25.1115 79.9918,24.8795 C79.5198,24.6765 79.1108,24.4105 78.8068,23.9935 C79.3298,24.7105 78.7178,23.1885 78.8038,23.8665 C78.6978,23.0285 78.8308,22.3615 79.5398,21.7165 C79.0928,22.1225 80.3048,21.5285 79.9018,21.5555 C80.7168,21.5025 81.2188,21.7185 82.0398,22.0505 C84.8568,23.1875 88.2198,20.8095 88.9588,18.1215 C89.8418,14.9075 87.8578,12.3445 85.0298,11.2015" id="Fill-164" fill="#A42C66"></path>
        <path d="M33.8391233,16.7558574 C33.7341233,16.2598574 33.5781233,15.8188574 33.3891233,15.4198574 C32.5501233,12.6948574 29.2471233,11.1588574 26.5801233,11.8928574 C23.4941233,12.7398574 22.0281233,15.8278574 22.6511233,18.8128574 C22.8931233,19.9688574 23.3121233,22.3368574 23.0341233,22.6578574 C22.6171233,22.9698574 22.0631233,23.0078574 21.2111233,22.8968574 C21.1111233,22.8838574 19.9511233,22.7508574 19.6721233,22.4218574 C19.5761233,22.1488574 19.6461233,21.7328574 19.5921233,21.9478574 C19.8161233,21.0518574 19.9051233,20.8008574 20.3071233,20.1548574 C24.1411233,13.9898574 14.4111233,8.33485742 10.5931233,14.4778574 C8.15612327,18.3958574 7.62812327,23.4868574 9.57812327,27.7088574 C10.5901233,29.8978574 12.3031233,31.3798574 14.3241233,32.3678574 C12.1191233,32.6388574 10.2231233,33.8888574 9.52612327,36.3178574 C8.77112327,38.9458574 10.4501233,42.8138574 13.4541233,43.2368574 C21.0171233,44.3028574 27.8161233,41.6848574 31.4371233,34.6338574 C34.2141233,29.2278574 35.0991233,22.7028574 33.8391233,16.7558574" id="Fill-166-Copy" fill="#E77E9F"></path>
        <path d="M32.8433,15.7054 C32.7383,15.2094 32.5823,14.7684 32.3933,14.3694 C31.5543,11.6444 28.2513,10.1084 25.5843,10.8424 C22.4983,11.6894 21.0323,14.7774 21.6553,17.7624 C21.8973,18.9184 22.3163,21.2864 22.0383,21.6074 C21.6213,21.9194 21.0673,21.9574 20.2153,21.8464 C20.1153,21.8334 18.9553,21.7004 18.6763,21.3714 C18.5803,21.0984 18.6503,20.6824 18.5963,20.8974 C18.8203,20.0014 18.9093,19.7504 19.3113,19.1044 C23.1453,12.9394 13.4153,7.2844 9.5973,13.4274 C7.1603,17.3454 6.6323,22.4364 8.5823,26.6584 C9.5943,28.8474 11.3073,30.3294 13.3283,31.3174 C11.1233,31.5884 9.2273,32.8384 8.5303,35.2674 C7.7753,37.8954 9.4543,41.7634 12.4583,42.1864 C20.0213,43.2524 26.8203,40.6344 30.4413,33.5834 C33.2183,28.1774 34.1033,21.6524 32.8433,15.7054" id="Fill-166" fill="#A42C66"></path>
        <path d="M55.7388,12.0277 C46.6948,8.3877 37.6988,16.6777 39.4658,25.9257 C40.2748,30.1657 43.4738,33.4407 47.4758,34.8607 C51.9538,36.4497 56.5688,34.9847 59.9448,31.8437 C64.5498,27.5607 57.6418,20.6777 53.0508,24.9497 C51.7118,26.1957 49.3808,25.8567 48.9698,23.9837 C48.3458,21.1367 51.1458,20.6247 53.1468,21.4287 C55.5908,22.4127 58.5028,20.3567 59.1438,18.0237 C59.9078,15.2417 58.1908,13.0137 55.7388,12.0277" id="Fill-168" fill="#310D4F"></path>
        <path d="M55.7388,12.0277 C46.6948,8.3877 37.6988,16.6777 39.4658,25.9257 C40.2748,30.1657 43.4738,33.4407 47.4758,34.8607 C51.9538,36.4497 56.5688,34.9847 59.9448,31.8437 C64.5498,27.5607 57.6418,20.6777 53.0508,24.9497 C51.7118,26.1957 49.3808,25.8567 48.9698,23.9837 C48.3458,21.1367 51.1458,20.6247 53.1468,21.4287 C55.5908,22.4127 58.5028,20.3567 59.1438,18.0237 C59.9078,15.2417 58.1908,13.0137 55.7388,12.0277 Z" id="Stroke-170" stroke="#161233"></path>
        <path d="M84.3813,11.7327 C75.3463,8.0817 66.3383,16.3697 68.0993,25.6167 C68.9063,29.8567 72.1033,33.1347 76.1053,34.5567 C80.5823,36.1497 85.1933,34.6897 88.5753,31.5517 C93.1853,27.2747 86.2773,20.3917 81.6813,24.6577 C80.3393,25.9027 78.0093,25.5467 77.6053,23.6737 C76.9903,20.8267 79.7863,20.3247 81.7893,21.1337 C84.2323,22.1207 87.1463,20.0597 87.7863,17.7287 C88.5513,14.9437 86.8323,12.7227 84.3813,11.7327" id="Fill-172" fill="#310D4F"></path>
        <path d="M84.3813,11.7327 C75.3463,8.0817 66.3383,16.3697 68.0993,25.6167 C68.9063,29.8567 72.1033,33.1347 76.1053,34.5567 C80.5823,36.1497 85.1933,34.6897 88.5753,31.5517 C93.1853,27.2747 86.2773,20.3917 81.6813,24.6577 C80.3393,25.9027 78.0093,25.5467 77.6053,23.6737 C76.9903,20.8267 79.7863,20.3247 81.7893,21.1337 C84.2323,22.1207 87.1463,20.0597 87.7863,17.7287 C88.5513,14.9437 86.8323,12.7227 84.3813,11.7327 Z" id="Stroke-174" stroke="#161233"></path>
        <path d="M31.6704,15.7132 C31.5764,15.2702 31.4364,14.8772 31.2654,14.5232 C29.7744,8.7222 20.6674,11.3252 21.9304,17.3692 C22.1404,18.3782 22.4954,20.9192 22.1634,21.7042 C21.8424,22.4662 20.3994,22.6002 19.7424,22.5112 C19.5754,22.4882 17.8864,22.3352 17.5264,21.7062 C16.9974,20.7792 17.4774,19.7192 18.2144,18.5342 C21.5364,13.1912 13.1054,8.2892 9.7954,13.6132 C7.5054,17.2962 6.9554,22.1042 8.7804,26.0872 C10.3334,29.4742 14.1164,31.4012 17.1564,31.7282 C16.4534,31.9332 15.6714,31.9922 14.8014,31.8692 C12.1734,31.4992 9.5974,32.5132 8.8044,35.2752 C8.1494,37.5522 9.6054,40.9042 12.2084,41.2712 C19.4424,42.2902 25.8954,39.7402 29.3444,33.0132 C32.0224,27.7892 32.8884,21.4572 31.6704,15.7132" id="Fill-176" fill="#310D4F"></path>
        <path d="M31.6704,15.7132 C31.5764,15.2702 31.4364,14.8772 31.2654,14.5232 C29.7744,8.7222 20.6674,11.3252 21.9304,17.3692 C22.1404,18.3782 22.4954,20.9192 22.1634,21.7042 C21.8424,22.4662 20.3994,22.6002 19.7424,22.5112 C19.5754,22.4882 17.8864,22.3352 17.5264,21.7062 C16.9974,20.7792 17.4774,19.7192 18.2144,18.5342 C21.5364,13.1912 13.1054,8.2892 9.7954,13.6132 C7.5054,17.2962 6.9554,22.1042 8.7804,26.0872 C10.3334,29.4742 14.1164,31.4012 17.1564,31.7282 C16.4534,31.9332 15.6714,31.9922 14.8014,31.8692 C12.1734,31.4992 9.5974,32.5132 8.8044,35.2752 C8.1494,37.5522 9.6054,40.9042 12.2084,41.2712 C19.4424,42.2902 25.8954,39.7402 29.3444,33.0132 C32.0224,27.7892 32.8884,21.4572 31.6704,15.7132 Z" id="Stroke-178" stroke="#161233" stroke-linecap="round" stroke-linejoin="round"></path>
    </g>
</svg>

<svg id="Layer_1" data-name="Layer 1" xmlns="http://www.w3.org/2000/svg" viewBox="0 0 100 50"><defs><style>.cls-1{fill:#f386aa;}.cls-2{fill:#b42c73;}.cls-3,.cls-4{fill:#231f20;stroke:#000;}.cls-3{stroke-miterlimit:10;}.cls-4{stroke-linecap:round;stroke-linejoin:round;}</style></defs><title>logo16</title><path class="cls-1" d="M57.39,12.5c-9.6-3.86-19.11,5.07-17.2,14.82a12.83,12.83,0,0,0,8.54,9.46c4.74,1.65,9.62.11,13.19-3.21,5.32-4.95-2.65-12.89-8-8-.58.54-1.07.8-1.61.57a2.73,2.73,0,0,1-1.18-.88c.52.71-.1-.8,0-.12-.28-2.1,1-2.73,3.23-1.84,2.82,1.14,6.18-1.23,6.92-3.92.88-3.21-1.1-5.78-3.93-6.92Z"/><path class="cls-1" d="M86,12.2C76.45,8.33,66.92,17.26,68.83,27a12.79,12.79,0,0,0,8.52,9.46c4.75,1.66,9.62.13,13.21-3.2,5.31-4.93-2.66-12.87-8-8-.58.54-1.07.79-1.61.56A2.67,2.67,0,0,1,79.81,25c.52.72-.09-.8,0-.12a2.23,2.23,0,0,1,.74-2.15c-.45.4.77-.19.36-.16a4.29,4.29,0,0,1,2.14.49c2.82,1.14,6.18-1.24,6.92-3.93.88-3.21-1.1-5.78-3.93-6.92Z"/><path class="cls-1" d="M33.84,16.71a5.7,5.7,0,0,0-.45-1.34,5.63,5.63,0,0,0-10.73,3.39c.24,1.16.66,3.53.38,3.85a2.41,2.41,0,0,1-1.82.24c-.1,0-1.26-.15-1.54-.48-.1-.27,0-.69-.08-.47a4.72,4.72,0,0,1,.71-1.79c3.83-6.17-5.89-11.83-9.71-5.68a14.16,14.16,0,0,0-1,13.23,9.73,9.73,0,0,0,4.75,4.66,5.39,5.39,0,0,0-4.8,4c-.75,2.63.92,6.49,3.93,6.92,7.56,1.06,14.36-1.56,18-8.61A27.35,27.35,0,0,0,33.84,16.71Z"/><path class="cls-2" d="M56.39,11.5c-9.6-3.86-19.11,5.07-17.2,14.82a12.83,12.83,0,0,0,8.54,9.46c4.74,1.65,9.62.11,13.19-3.21,5.32-4.95-2.65-12.89-8-8-.58.54-1.07.8-1.61.57a2.73,2.73,0,0,1-1.18-.88c.52.71-.1-.8,0-.12-.28-2.1,1-2.73,3.23-1.84,2.82,1.14,6.18-1.23,6.92-3.92.88-3.21-1.1-5.78-3.93-6.92Z"/><path class="cls-2" d="M85,11.2C75.45,7.33,65.92,16.26,67.83,26a12.79,12.79,0,0,0,8.52,9.46c4.75,1.66,9.62.13,13.21-3.2,5.31-4.93-2.66-12.87-8-8-.58.54-1.07.79-1.61.56A2.67,2.67,0,0,1,78.81,24c.52.72-.09-.8,0-.12a2.23,2.23,0,0,1,.74-2.15c-.45.4.77-.19.36-.16a4.29,4.29,0,0,1,2.14.49c2.82,1.14,6.18-1.24,6.92-3.93.88-3.21-1.1-5.78-3.93-6.92Z"/><path class="cls-2" d="M32.84,15.71a5.7,5.7,0,0,0-.45-1.34,5.63,5.63,0,0,0-10.73,3.39c.24,1.16.66,3.53.38,3.85a2.41,2.41,0,0,1-1.82.24c-.1,0-1.26-.15-1.54-.48-.1-.27,0-.69-.08-.47a4.72,4.72,0,0,1,.71-1.79c3.83-6.17-5.89-11.83-9.71-5.68a14.16,14.16,0,0,0-1,13.23,9.73,9.73,0,0,0,4.75,4.66,5.39,5.39,0,0,0-4.8,4c-.75,2.63.92,6.49,3.93,6.92,7.56,1.06,14.36-1.56,18-8.61A27.35,27.35,0,0,0,32.84,15.71Z"/><path class="cls-3" d="M55.74,12c-9.05-3.64-18,4.65-16.28,13.9a12.06,12.06,0,0,0,8,8.93c4.47,1.59,9.09.12,12.46-3,4.61-4.28-2.3-11.16-6.89-6.89-1.34,1.25-3.67.91-4.08-1-.62-2.84,2.18-3.36,4.18-2.55,2.44,1,5.35-1.07,6-3.41.77-2.78-1-5-3.4-6Z"/><path class="cls-3" d="M84.38,11.73c-9-3.65-18,4.64-16.28,13.89a12.08,12.08,0,0,0,8,8.94c4.48,1.59,9.09.13,12.48-3,4.6-4.28-2.3-11.16-6.9-6.89-1.34,1.24-3.67.89-4.07-1-.62-2.84,2.18-3.35,4.18-2.54,2.44,1,5.36-1.07,6-3.4.76-2.79-1-5-3.41-6Z"/><path class="cls-4" d="M31.67,15.71a5.2,5.2,0,0,0-.4-1.19c-1.5-5.8-10.6-3.19-9.34,2.85.21,1,.57,3.55.23,4.33s-1.76.9-2.42.81c-.16,0-1.85-.17-2.21-.8-.53-.93-.05-2,.68-3.18,3.33-5.34-5.1-10.24-8.41-4.92a13.46,13.46,0,0,0-1,12.48c1.55,3.38,5.34,5.31,8.38,5.64a5.71,5.71,0,0,1-2.36.14c-2.63-.37-5.2.64-6,3.4-.65,2.28.81,5.63,3.41,6,7.23,1,13.69-1.53,17.13-8.26A26.55,26.55,0,0,0,31.67,15.71Z"/></svg>
